X:1
T:Frisch gesungen
T:Friedrich Silcher
T:Adelbert von Chamisso
T:Frisch gesungen
T:Hab oft im Kreise der Lieben
T:CPDL - Creative Commons Attribution Non Commercial 3.0
C:Friedrich Silcher
Z:Adelbert von Chamisso
Z:CPDL - Creative Commons Attribution Non Commercial 3.0
%%score [ ( 1 2 ) ( 3 4 ) ]
L:1/8
Q:1/4=100
M:4/4
K:C
V:1 treble-8 nm="Tenor"
V:2 treble-8 
V:3 bass nm="Bass"
V:4 bass 
V:1
"^Lebendig" G2 | e2 e2 f2 (ee) |!>(! (d3 e)!>)! d2 ed | c2 (cc) dc(Bc) | d4 z2 d2 | %5
 d2!<(! d2 e2 (e!<)!e) | g4 f2 ed | c2 cc Bc de | c4 z2 c2 | c2 c2 f2 (ee) | (d3 e) d2 e2 | %11
 f2 fe d2 d>e | d4 z2 d2 | !>!g4 ^f2 z2 | !>!=f4 e2 z e | gfed c2 B2 | c4 z2 |] %17
V:2
 G2 | c2 c2 c2 (cc) | B4 B2 B2 | A2 (AA) A2 (AA) | B4 x2 B2 | B2 B2 ^c2 (cc) | e4 d2 A2 | %7
w: 1.~Hab'|oft im Krei- se der|Lie- ben in|duf- ti- gem Gra- se ge-|ruht und|mir ein Lied- lein ge-|sun- gen, und|
w: 2.~Hab'|ein- sam auch mich ge-|här- met in|ban- gem, _ dü- ste- rem|Mut und|ha- be wie- der ge-|sun- gen, und|
w: 3.~Und|man- ches, was ich er-|fah- ren, ver-|kocht' ich in stil- ler _|Wut, und|kam ich wie- der zu|sin- gen, war|
w: 4.~Sollst|uns nicht lan- ge _|kla- gen, was|al- les dir we- he _|tut, nur|frisch, nur frisch ge- *|sun- gen; und|
 G2 GG G2 G2 | G4 x2 c2 | c2 c2 c2 (cc) | c4 c2 c2 | c2 cc c2 c2 | B4 x2 B2 | c4 c2 x2 | %14
w: al- les war hübsch und|gut, und|mir ein Lied- lein ge­-|sun- gen, und|al- les war hübsch und|gut, und|al- les,|
w: al- les war wie- der|gut, und|ha- be wie- der ge­-|sun- gen, und|al- les war wie- der|gut, und|al- les,|
w: al- les auch wie- der|gut, und|kam ich wie- der zu|sin- gen, war|al- les auch wie- der|gut, war|al- les,|
w: al- les wird wie- der|gut, nur|frisch, nur frisch ge- *|sun- gen, und|al- les wird wie- der|gut, und|al- les,|
 B4 _B2 x B | A2 AA G2 G2 | G4 x2 |] %17
w: al- les, und|al- les war hübsch und|gut.|
w: al- les, und|al- les war wie- der|gut.|
w: al- les war|al- les auch wie- der|gut.|
w: al- les, und|al- les wird wie- der|gut.|
V:3
 G,2 | G,2 G,2 A,2 (G,G,) |!>(! (F,3 G,)!>)! F,2 F,2 | E,2 (E,E,) ^F,2 (F,F,) | G,4 z2 G,2 | %5
 G,2!<(! G,2 G,2 (A,!<)!A,) | A,4 A,2 F,2 | E,2 E,E, D,E, F,G, | E,4 z2 C2 | C2 C2 C2 (CC) | %10
 A,4 A,2 C2 | C2 CC A,2 ^F,2 | G,4 z2 G,2 | !>!G,4 A,2 z2 | !>!G,4 G,2 z G, | F,2 F,F, E,2 D,F, | %16
 E,4 z2 |] %17
V:4
 G,2 | C,2 C,2 C,2 (C,C,) | G,,4 G,,2 G,,2 | A,,2 (A,,A,,) D,2 (D,D,) | G,,4 x2 G,2 | %5
 =F,2 F,2 E,2 (E,E,) | D,4 D,2 F,,2 | G,,2 G,,G,, G,,2 G,,2 | C,4 x2 C2 | C2 C2 A,2 (G,G,) | %10
 ^F,4 F,2 G,2 | A,2 A,G, ^F,2 D,2 | G,4 x2 =F,2 | E,4 D,2 x2 | D,4 ^C,2 x C, | D,2 F,F, G,2 G,,2 | %16
 C,4 x2 |] %17

